X: 21061
M: 6/8
L: 1/8
K: Bb
V: 1 name="1"
d |\
f2f def | def g3 | e2e cde | cde f3 |\
f2f Bcd | Bcd e3 | g2g fed | edc B/d/f"^D.C."b |]
f2f def | def g3 | e2e cde | cde f3 |\
d2d Bcd | Bcd e3 | g2g fed | cAc B2"^D.C."z |]


